X: 130
T:Drummond Castle
R:Jig
O:Scotland
M:6/8
L:1/8
K:C
G|ABA a3|age g3|c2c edc|Bdg dBG|
ABA a3|age g3|e>ge deg|edB A2:|
|:B|c2c cec|d2d ded|c2c edc|Bdg dBG|
c2c edc|deg a2g|age deg|edB A2:|
